src/svg/home.svg

<svg xmlns="http://www.w3.org/2000/svg" width="1000" height="1000" viewBox="0 0 1000 1000"><path fill-rule="evenodd" clip-rule="evenodd" fill="#020202" d="M872.508 531.005c-16.353 16.353-42.522 16.437-59.237.724v268.125c0 47.167-38.212 85.379-85.49 85.379h-455.572c-47.251 0-85.463-38.212-85.463-85.379v-268.125c-16.729 15.713-42.912 15.629-59.265-.724-16.729-16.658-16.729-43.719 0-60.377l59.265-59.349v-209.472c0-15.796 12.766-28.478 28.465-28.478h113.913c15.769 0 28.465 12.682 28.465 28.478v38.657l112.23-112.161c16.646-16.742 43.719-16.742 60.364 0l342.324 342.325c16.743 16.658 16.743 43.719.001 60.377zm-457.921 183.386v85.463h170.829v-227.856c0-15.769-12.766-28.45-28.451-28.45h-113.927c-15.686 0-28.451 12.682-28.451 28.45v142.393zm-113.927-484.133h-56.985v124.12l56.985-56.929v-67.191zm427.12 216.48l-227.744-227.855-227.827 227.855v324.637c0 15.713 12.752 28.479 28.451 28.479h56.929v-227.856c0-47.167 38.281-85.435 85.449-85.435h113.927c47.168 0 85.436 38.268 85.436 85.435v227.855h56.957c15.74 0 28.423-12.766 28.423-28.479v-324.636h-.001z"/></svg>

<?xml version="1.0" encoding="utf-8"?>
<!-- Generator: Adobe Illustrator 16.0.0, SVG Export Plug-In . SVG Version: 6.00 Build 0)  -->
<!DOCTYPE svg PUBLIC "-//W3C//DTD SVG 1.1//EN" "http://www.w3.org/Graphics/SVG/1.1/DTD/svg11.dtd">
<svg version="1.1" id="Layer_1" xmlns="http://www.w3.org/2000/svg" xmlns:xlink="http://www.w3.org/1999/xlink" x="0px" y="0px"
	 width="1000px" height="1000px" viewBox="0 0 1000 1000" enable-background="new 0 0 1000 1000" xml:space="preserve">
<path fill-rule="evenodd" clip-rule="evenodd" fill="#020202" d="M872.508,531.005c-16.353,16.353-42.522,16.437-59.237,0.724
	v268.125c0,47.167-38.212,85.379-85.49,85.379H556.965H443.038H272.209c-47.251,0-85.463-38.212-85.463-85.379V531.729
	c-16.729,15.713-42.912,15.629-59.265-0.724c-16.729-16.658-16.729-43.719,0-60.377l59.265-59.349V201.807
	c0-15.796,12.766-28.478,28.465-28.478h113.913c15.769,0,28.465,12.682,28.465,28.478v38.657l112.23-112.161
	c16.646-16.742,43.719-16.742,60.364,0l342.324,342.325C889.25,487.286,889.25,514.347,872.508,531.005L872.508,531.005z
	 M414.587,714.391v56.984v28.479h28.451h113.927h28.451v-28.479v-56.984V571.998c0-15.769-12.766-28.45-28.451-28.45H443.038
	c-15.686,0-28.451,12.682-28.451,28.45V714.391L414.587,714.391z M300.66,230.258h-56.985v124.12l56.985-56.929V230.258
	L300.66,230.258z M727.78,446.738L500.036,218.883L272.209,446.738v324.637c0,15.713,12.752,28.479,28.451,28.479h56.929V571.998
	c0-47.167,38.281-85.435,85.449-85.435h113.927c47.168,0,85.436,38.268,85.436,85.435v227.855h56.957
	c15.74,0,28.423-12.766,28.423-28.479V446.738L727.78,446.738z"/>
</svg>
